X: 20124
T: Jimmy's Favourite
R: jig
M: 6/8
K: Gmajor
|:dd/e/f|g2 b gdB|GAG GAB|cdc cBA|E3 E2 g|
fgf fed|afa f2 e|1 dcd edc|B3:|2 dcd dd/e/f|g3||
|:DD/E/F|G2 G GD[B,B]|GD[B,B] GD[B,B]|GFG GAB|c3 cBA|
F2 F FED|FED FED|DF/G/A cAF|1 GBA:|2 G3||

